X: 004
M: 6/8
L: 1/8
K: G
(B/c/d)G c2B | {B}A>GF G2 :: d |\
g2f g2d | =f>gf {f}e2d |
de^f gfe | {e}dcB A2d |\
edc Bcd | edc Bcd | (e/f/g)G (c2B) | {B}A>GF G2 :|


